modules/hawcons-stroke/icons/icon-83-document-forbidden.svg

<?xml version="1.0" encoding="UTF-8" standalone="no"?>
<svg width="32px" height="32px" viewBox="0 0 32 32" version="1.1" xmlns="http://www.w3.org/2000/svg" xmlns:xlink="http://www.w3.org/1999/xlink" xmlns:sketch="http://www.bohemiancoding.com/sketch/ns">
    <!-- Generator: Sketch 3.0.3 (7891) - http://www.bohemiancoding.com/sketch -->
    <title>icon 83 document forbidden</title>
    <desc>Created with Sketch.</desc>
    <defs></defs>
    <g id="Page-1" stroke="none" stroke-width="1" fill="none" fill-rule="evenodd" sketch:type="MSPage">
        <g id="icon-83-document-forbidden" sketch:type="MSArtboardGroup" fill="#929292">
            <path d="M25.0159497,22.691157 C25.6317636,23.4609925 26,24.4374931 26,25.5 C26,27.9852815 23.9852815,30 21.5,30 C20.4374931,30 19.4609925,29.6317636 18.691157,29.0159497 L25.0159497,22.691157 L25.0159497,22.691157 Z M24.308843,21.9840503 C23.5390075,21.3682364 22.5625069,21 21.5,21 C19.0147185,21 17,23.0147185 17,25.5 C17,26.5625069 17.3682364,27.5390075 17.9840503,28.308843 L24.308843,21.9840503 L24.308843,21.9840503 Z M17.257162,29 L6.99742191,29 C5.89092539,29 5,28.1012878 5,26.9926701 L5,4.00732994 C5,2.89833832 5.89666625,2 7.00276013,2 L17.5,2 L17.5,2 L18,2 L24,9 L24,9.5 L24,20.5997073 C25.7808383,21.5100654 27,23.3626574 27,25.5 C27,28.5375663 24.5375663,31 21.5,31 C19.7920629,31 18.2659536,30.2215034 17.257162,29 L17.257162,29 L17.257162,29 Z M16.5997095,28 L6.9999602,28 C6.45470893,28 6,27.5543187 6,27.004543 L6,3.99545703 C6,3.45526288 6.44573523,3 6.9955775,3 L17,3 L17,7.99408095 C17,9.11344516 17.8944962,10 18.9979131,10 L23,10 L23,20.2070325 C22.5231682,20.0721672 22.0200119,20 21.5,20 C18.4624337,20 16,22.4624337 16,25.5 C16,26.4002234 16.2162786,27.2499322 16.5997095,28 L16.5997095,28 L16.5997095,28 Z M18,3.5 L18,7.99121523 C18,8.54835167 18.4506511,9 18.9967388,9 L22.6999512,9 L18,3.5 L18,3.5 Z" id="document-forbidden" sketch:type="MSShapeGroup"></path>
        </g>
    </g>
</svg>

<svg width="32" height="32" viewBox="0 0 32 32" xmlns="http://www.w3.org/2000/svg"><path d="M25.016 22.691a4.5 4.5 0 0 1-6.325 6.325l6.325-6.325zm-.707-.707a4.5 4.5 0 0 0-6.325 6.325l6.325-6.325zM17.257 29H6.997A2 2 0 0 1 5 26.993V4.007C5 2.898 5.897 2 7.003 2H18l6 7v11.6a5.5 5.5 0 1 1-6.743 8.4zm-.657-1H7c-.545 0-1-.446-1-.995V3.995c0-.54.446-.995.996-.995H17v4.994c0 1.12.894 2.006 1.998 2.006H23v10.207A5.5 5.5 0 0 0 16.6 28zM18 3.5v4.491c0 .557.45 1.009.997 1.009H22.7L18 3.5z" fill="#929292" fill-rule="evenodd"/></svg>
